X:1
T:Title
%%score { ( 1 3 ) | 2 }
L:1/8
Q:1/4=87
M:6/8
K:F
V:1 treble nm="Grand Piano"
V:3 treble 
V:2 bass 
V:1
 FFF FED | F2 A c3 | [Ec][Ed][Ec] [EG]3 | cdc F3 | FFF FED | F2 A c3 | EEE [=B,G][B,G][B,G] | C6 | %8
w: J.~Lincoln~Hall * * * * *||||||||
 CDE FG_A | .A3 c3 | cdc GAB | AFD CCC | CDE FG_A | .A3 c3 | F[EG][_EA] [Dc][DB]D | AAG [A,F]3 | %16
w: ||||||||
 c3 .d3 | F3 A3 | [DG][DA][DB] D[DA][DG] | F3 E3 | c-[FAc-][FAc] d-[FAd][FAc] | F3 A3 | %22
w: ||||||
 [EAc][EAc][EAc] [E_Ae][EAe][EAe] | [CEA]6 | BAG CAG | .F3 c3 | BAG CAG | .F3 c3 | %28
w: ||||||
 [FBd][FB^c][FBd] [FBf][FBe][FBd] |[M:15/16] .[FAc]3 z3/2 z3 |[M:3/4] [FA][FAd] .[FAc]2 CE | F6 |] %32
w: ||||
V:2
 [F,A,C][F,A,C][F,A,C] [F,A,C][F,A,C][F,A,C] | [F,A,C]2 [F,CF] [F,A,F]3 | %2
 [C,B,][C,B,][C,B,] [C,B,]3 | [F,A,F][F,A,F][F,A,F] [F,A,]3 | %4
 [F,A,C][F,A,C][F,A,C] [F,A,C][F,A,C][F,A,C] | [F,A,C]2 [F,CF] [F,A,F]3 | %6
 [C,G,C][C,G,C][C,G,C] [G,,G,][G,,G,][G,,F,] | [C,E,]6 | C,[E,G,B,][E,G,B,] C,[E,G,B,][E,G,B,] | %9
 F,A,[A,C] F,A,A, | C,[E,G,B,][E,G,B,] C,[E,G,B,][E,G,B,] | F,[A,C]B, F,A,A, | %12
 C,[E,G,B,][E,G,B,] C,[E,G,B,][E,G,B,] | F,A,[A,C] F,A,A, | F,CC B,,B,B, | %15
 [C,C][F,C][E,B,] [F,,F,]3 | [F,A,C][F,A,C][F,A,C] [F,A,C][F,A,C][F,A,C] | %17
 [F,A,C][F,A,][F,A,] [F,A,CF][F,A,C][F,A,C] | [B,,B,][B,,B,][B,,B,] [B,,B,][B,,B,][B,,B,] | %19
 [C,A,C][C,A,][C,A,] [C,G,C][C,G,][C,G,] | [F,A,C][F,A,C][F,A,C] [F,A,C][F,A,C][F,A,C] | %21
 [F,A,C][F,A,][F,A,] [F,A,CF][F,A,C][F,A,C] | [E,A,C][E,A,C][E,A,C] [E,_A,B,D][E,A,B,D][E,A,B,D] | %23
 A,E,C, A,,3 | C,[E,G,B,][E,G,B,] C,[E,G,B,][E,G,B,] | F,A,[A,C] F,A,A, | %26
 C,[E,G,B,][E,G,B,] C,[E,G,B,][E,G,B,] | F,A,[A,C] F,A,A, | %28
 B,,[F,B,D][F,B,D] [F,B,D][F,B,D][F,B,D] | %29
[M:15/16] [F,A,C]A,/-A,/[F,A,CF][^C,_A,=B,]3/2- [C,A,B,]3 | %30
[M:3/4] [C,A,C][C,A,] [C,A,][C,G,B,] [C,G,][C,G,B,C] | [F,A,C][F,A,] [F,B,] [F,A,]3 |] %32
V:3
 x6 | x6 | x6 | x6 | x6 | x6 | x6 | x6 | x6 | z Cd z CC | x6 | x6 | x6 | z Cd z CC | x6 | x6 | %16
 [FA][FA][FA] [FA][FA][FAc] | z CC z FF | x6 | z CC z CC | .[FA]3 .[FA]3 | z CC z FF | x6 | %23
 z3 A,3 | x6 | z CA z CC | x6 | z CA z CC | x6 |[M:15/16] z C/-C/AF->FG-G3/2 | %30
[M:3/4] z2 z .[EGB]3 | z C D C3 |] %32

